theme/images/content/unicard-left-right-variations/5/producticon.svg

<svg fill="none" height="30" viewBox="0 0 30 30" width="30" xmlns="http://www.w3.org/2000/svg" xmlns:xlink="http://www.w3.org/1999/xlink"><clipPath id="a"><path d="m0 0h30v30h-30z"/></clipPath><g clip-path="url(#a)"><path d="m29.7586 13.6408c-.228-.6341-.5992-1.1846-1.0675-1.644-.0073-.0066-.0157-.0143-.023-.0209-.0934-.0912-.1893-.1791-.2936-.2593-.0352-.0319-.0691-.056-.1079-.0846-.0777-.0626-.159-.1231-.2402-.1747-.0583-.0418-.1201-.077-.1783-.1154-.0692-.0418-.1359-.0802-.2051-.1187-.0351-.0209-.0655-.0418-.1043-.0593l-20.207-10.57147c-.17832-.094505-.36028-.171429-.54224-.241758h-.00728c-.14314-.056044-.28992-.105495-.43306-.147253-.01577-.003297-.03154-.006593-.04609-.010989-.13586-.038462-.27415-.07033-.41001-.0945055-.03882-.0065934-.074-.0142857-.1116-.0175824-.1201-.0208791-.23655-.0384615-.35543-.0527472-.05823-.0032967-.11645-.0065934-.17468-.010989-.10068-.0065935-.20136-.01428576-.29841-.01428576-.02305 0-.04246-.0032967-.06186-.0032967-.05823 0-.11282.0065934-.16619.01098896-.08128 0-.16255.0032968-.24383.0109891-.0934.0065934-.17831.0175824-.26687.0285714-.0655.0065934-.13586.0175824-.20136.0285714-.08856.0142857-.17832.0318677-.26688.0527477-.06914.014285-.1395.031868-.20864.04945l-.22078.062637c-.08491.027473-.16982.056044-.25595.087913-.04974.017582-.09705.035164-.14314.052747-.11282.045055-.22442.094505-.33238.147253-.01577.006593-.02668.014285-.04245.020879-.75088.368132-1.40472.918679-1.868105 1.626369-.007279.01099-.01577.02418-.023048.03517-.189236.3011-.336016.61648-.44519.93626-.038818.12967-.077636.25934-.104323.38901 0 .0066-.0036391.01759-.0036391.02857-.0315394.12638-.0497352.25605-.0655048.38572-.0072783.04615-.0072783.08791-.0121306.12967-.0036391.05934-.0072783.11868-.01213048.17912-.00363916.03846-.00363916.07692-.00363916.11539 0 .01758-.00363916.03846-.00363916.05604v21.14061c0 .0176.00363916.0385.00363916.0561 0 .0385 0 .0769.00363916.1154.00363918.0593.00727828.1187.01213048.1791.0036392.0418.0036392.0846.0121306.1297.0157696.1296.0351785.2593.0655048.3857 0 .011.0036391.0209.0036391.0286.026687.1296.065505.2593.104323.389.107961.3186.255954.634.44519.9362.007278.011.015769.0242.023048.0352.464595.7077 1.118435 1.2582 1.868105 1.6264.01577.0066.02668.0143.04245.0208.10796.0528.22078.1022.33238.1473.04609.0176.0934.0352.14314.0527.08491.0319.16983.0594.25595.088.074.0208.14678.045.22078.0626.06914.0176.1395.0352.20864.0494.08856.0209.17468.0385.26324.0528.06914.011.1395.0209.205.0286.08856.011.17832.0208.26687.0285.08128.0066.16255.011.24383.0143.05458 0 .10796.0066.16619.0066.0194 0 .03881-.0033.06186-.0033.09705 0 .19773-.0066.29841-.0143.05823-.0033.11645-.0066.17468-.011.12009-.0142.23655-.0318.35543-.0494.03881-.0066.07399-.011.1116-.0176.13586-.0286.27415-.0593.41001-.0978.01577-.0033.03154-.0066.04609-.011.14314-.0417.28992-.0912.43306-.1439 0 0 .00243-.0011.00728-.0033.18196-.0704.36392-.1473.54224-.2418l19.8201-10.367c2.2247-.9286 3.3856-3.2385 2.608-5.4011zm-19.97896 4.2571v-5.7967l5.53996 2.8989-5.53996 2.8989z" fill="#ff5c35"/></g></svg>

<svg width="30" height="30" viewBox="0 0 30 30" fill="none" xmlns="http://www.w3.org/2000/svg">
<g clip-path="url(#clip0_11_38)">
<path d="M29.7586 13.6408C29.5306 13.0067 29.1594 12.4562 28.6911 11.9968C28.6838 11.9902 28.6754 11.9825 28.6681 11.9759C28.5747 11.8847 28.4788 11.7968 28.3745 11.7166C28.3393 11.6847 28.3054 11.6606 28.2666 11.632C28.1889 11.5694 28.1076 11.5089 28.0264 11.4573C27.9681 11.4155 27.9063 11.3803 27.8481 11.3419C27.7789 11.3001 27.7122 11.2617 27.643 11.2232C27.6079 11.2023 27.5775 11.1814 27.5387 11.1639L7.3317 0.59243C7.15338 0.497925 6.97142 0.421001 6.78946 0.350672H6.78218C6.63904 0.294628 6.49226 0.245177 6.34912 0.203419C6.33335 0.200122 6.31758 0.196826 6.30303 0.19243C6.16717 0.153968 6.02888 0.1221 5.89302 0.0979245C5.8542 0.0913311 5.81902 0.0836388 5.78142 0.0803421C5.66132 0.059463 5.54487 0.0418806 5.42599 0.0275949C5.36776 0.0242982 5.30954 0.0210015 5.25131 0.0166059C5.15063 0.0100124 5.04995 0.00232014 4.9529 0.00232014C4.92985 0.00232014 4.91044 -0.000976562 4.89104 -0.000976562C4.83281 -0.000976562 4.77822 0.00561684 4.72485 0.0100124C4.64357 0.0100124 4.5623 0.0133092 4.48102 0.0210015C4.38762 0.0275949 4.30271 0.0385839 4.21415 0.0495729C4.14865 0.0561663 4.07829 0.0671553 4.01279 0.0781443C3.92423 0.09243 3.83447 0.110012 3.74591 0.130892C3.67677 0.145177 3.60641 0.16276 3.53727 0.180342L3.31649 0.242979C3.23158 0.270452 3.14667 0.299023 3.06054 0.330892C3.0108 0.348474 2.96349 0.366056 2.9174 0.383639C2.80458 0.428694 2.69298 0.478144 2.58502 0.530892C2.56925 0.537485 2.55834 0.545177 2.54257 0.551771C1.79169 0.919903 1.13785 1.47045 0.674465 2.17814C0.667186 2.18913 0.658695 2.20232 0.651417 2.21331C0.462181 2.51441 0.315401 2.82979 0.206227 3.14957C0.167409 3.27924 0.128591 3.40891 0.101904 3.53858C0.101904 3.54518 0.0982649 3.55617 0.0982649 3.56715C0.0667255 3.69353 0.0485297 3.8232 0.0327601 3.95287C0.0254818 3.99902 0.0254818 4.04078 0.0206295 4.08254C0.0169904 4.14188 0.0133512 4.20122 0.00849902 4.26166C0.00485986 4.30012 0.00485986 4.33858 0.00485986 4.37705C0.00485986 4.39463 0.0012207 4.41551 0.0012207 4.43309V25.5737C0.0012207 25.5913 0.00485986 25.6122 0.00485986 25.6298C0.00485986 25.6683 0.00485986 25.7067 0.00849902 25.7452C0.0121382 25.8045 0.0157773 25.8639 0.0206295 25.9243C0.0242687 25.9661 0.0242687 26.0089 0.0327601 26.054C0.0485297 26.1836 0.0679386 26.3133 0.0982649 26.4397C0.0982649 26.4507 0.101904 26.4606 0.101904 26.4683C0.128591 26.5979 0.167409 26.7276 0.206227 26.8573C0.314188 27.1759 0.462181 27.4913 0.651417 27.7935C0.658695 27.8045 0.667186 27.8177 0.674465 27.8287C1.13906 28.5364 1.7929 29.0869 2.54257 29.4551C2.55834 29.4617 2.56925 29.4694 2.58502 29.4759C2.69298 29.5287 2.8058 29.5781 2.9174 29.6232C2.96349 29.6408 3.0108 29.6584 3.06054 29.6759C3.14545 29.7078 3.23037 29.7353 3.31649 29.7639C3.39049 29.7847 3.46327 29.8089 3.53727 29.8265C3.60641 29.8441 3.67677 29.8617 3.74591 29.8759C3.83447 29.8968 3.92059 29.9144 4.00915 29.9287C4.07829 29.9397 4.14865 29.9496 4.21415 29.9573C4.30271 29.9683 4.39247 29.9781 4.48102 29.9858C4.5623 29.9924 4.64357 29.9968 4.72485 30.0001C4.77943 30.0001 4.83281 30.0067 4.89104 30.0067C4.91044 30.0067 4.92985 30.0034 4.9529 30.0034C5.04995 30.0034 5.15063 29.9968 5.25131 29.9891C5.30954 29.9858 5.36776 29.9825 5.42599 29.9781C5.54608 29.9639 5.66254 29.9463 5.78142 29.9287C5.82023 29.9221 5.85541 29.9177 5.89302 29.9111C6.02888 29.8825 6.16717 29.8518 6.30303 29.8133C6.3188 29.81 6.33457 29.8067 6.34912 29.8023C6.49226 29.7606 6.63904 29.7111 6.78218 29.6584C6.78218 29.6584 6.78461 29.6573 6.78946 29.6551C6.97142 29.5847 7.15338 29.5078 7.3317 29.4133L27.1518 19.0463C29.3765 18.1177 30.5374 15.8078 29.7598 13.6452L29.7586 13.6408ZM9.77964 17.8979V12.1012L15.3196 15.0001L9.77964 17.899V17.8979Z" fill="#FF5C35"/>
</g>
<defs>
<clipPath id="clip0_11_38">
<rect width="30" height="30" fill="white"/>
</clipPath>
</defs>
</svg>
